X:1
T:Sansonette
M:4/4
L:1/8
R:reel
Z:Steve Mansfield
K:Em % transpuesto desde Dm
B2B2A3G|FGAB E4|EFGA B2AB|d2c2B4|B2B2A3G|FGAB E4|EFGA B2AG|FEFG E4:|
|:B2GB cGBc|B2GB cGBc|F2FB cFBc|F2FB cFBc|B2GB cGBc|B2GB cGBc|BcBA GAGF|EFGF E4:|

